X: 8144
T: Cook In The Kitchen, The
R: jig
M: 6/8
K: Dmajor
|:dAd ded|cAB =c3|dAd dcd|eaa ged|
dAd ded|cAB =c2a|ged cde|1 fdd d3:|2 fdd d2e||
|:f2f fed|e2e e3|Add dcd|eaa ged|
f2f fed|e2e e2a|ged cde|fdd d3:|
|:A2B c2d|e2d cBA|GED CDE|FDD GEE|
A2B c2d|e2d cBA|GED CDE|FDD D3:|

